lib/healthicons/icons/outline/symbols/sexual_reproductive_health.svg

<svg fill="none" height="48" viewBox="0 0 48 48" width="48" xmlns="http://www.w3.org/2000/svg"><g clip-rule="evenodd" fill="#333" fill-rule="evenodd"><path d="m17.5459 15.4793c-1.4358-.5606-3.0165-.6316-4.4968-.202-1.4803.4295-2.7775 1.3357-3.69011 2.5778-.91267 1.2422-1.38983 2.7508-1.35744 4.2919.03238 1.541.5725 3.0283 1.53654 4.231.96401 1.2027 2.29811 2.0535 3.79511 2.4206 1.4971.367 3.0734.2296 4.4844-.3908s2.5778-1.6893 3.3193-3.0406c.7414-1.3513 1.0162-2.9096.7815-4.433-.0841-.5458.2903-1.0565.8361-1.1406.5459-.084 1.0565.2903 1.1406.8361.3017 1.9587-.0515 3.9622-1.0048 5.6996-.9534 1.7374-2.4535 3.1116-4.2676 3.9093-1.8142.7977-3.8409.9743-5.7657.5024-1.9248-.4718-3.63997-1.5658-4.87945-3.1121-1.23948-1.5464-1.93392-3.4586-1.97556-5.4399s.57185-3.921 1.74528-5.5181c1.17342-1.597 2.84113-2.7621 4.74443-3.3144 1.9032-.5523 3.9356-.461 5.7816.2598.5145.2008.7687.7807.5678 1.2952-.2008.5144-.7807.7687-1.2952.5678z"/><path d="m14 38.9999v-8c0-.5523.4477-1 1-1s1 .4477 1 1v8c0 .5523-.4477 1-1 1s-1-.4477-1-1z"/><path d="m11 33.9999c0-.5523.4477-1 1-1h6c.5523 0 1 .4477 1 1s-.4477 1-1 1h-6c-.5523 0-1-.4477-1-1z"/><path d="m28.9016 15.2631c-1.4834-.4187-3.0636-.3361-4.4952.235-1.4317.5711-2.6348 1.5988-3.4228 2.9236-.7879 1.3248-1.1165 2.8726-.9348 4.4032.0651.5485-.3267 1.0458-.8752 1.1109-.5484.0651-1.0458-.3267-1.1109-.8751-.2335-1.968.189-3.958 1.202-5.6613s2.5599-3.0246 4.4006-3.7589c1.8408-.7343 3.8724-.8405 5.7796-.3021 1.9073.5383 3.5835 1.6911 4.7686 3.2795s1.8128 3.5236 1.7857 5.5052c-.0272 1.9815-.7076 3.8988-1.9357 5.4541-1.2281 1.5554-2.9353 2.6619-4.8565 3.1479-1.9213.486-3.9492.3242-5.7692-.4602-.5072-.2186-.7411-.8069-.5225-1.3141s.8069-.7411 1.3141-.5225c1.4155.61 2.9928.7358 4.4871.3579 1.4944-.378 2.8221-1.2386 3.7773-2.4484.9552-1.2097 1.4845-2.7009 1.5055-4.2421.0211-1.5412-.4671-3.0464-1.3888-4.2818s-2.2255-2.132-3.7089-2.5508z"/><path d="m32.7929 17.207c-.3905-.3905-.3905-1.0237 0-1.4142l7.5-7.50001c.3905-.39052 1.0237-.39052 1.4142 0s.3905 1.02369 0 1.41421l-7.5 7.5c-.3905.3905-1.0237.3905-1.4142 0z"/><path d="m40.9244 14.9998c-.5523-.0069-.9943-.4603-.9873-1.0125l.0501-3.9746-3.9746.0501c-.5522.0069-1.0056-.43509-1.0125-.98733-.007-.55224.4351-1.00556.9873-1.01252l6.0254-.07589-.0759 6.02544c-.007.5522-.4603.9943-1.0125.9873z"/></g></svg>

<svg width="48" height="48" viewBox="0 0 48 48" fill="none" xmlns="http://www.w3.org/2000/svg">
<path fill-rule="evenodd" clip-rule="evenodd" d="M17.5459 15.4794C16.1101 14.9188 14.5294 14.8478 13.0491 15.2774C11.5688 15.707 10.2716 16.6131 9.35899 17.8553C8.44632 19.0974 7.96916 20.6061 8.00155 22.1471C8.03393 23.6881 8.57405 25.1754 9.53809 26.3781C10.5021 27.5808 11.8362 28.4317 13.3332 28.7987C14.8303 29.1657 16.4066 29.0283 17.8176 28.4079C19.2286 27.7875 20.3954 26.7187 21.1369 25.3673C21.8783 24.016 22.1531 22.4578 21.9184 20.9343C21.8343 20.3885 22.2087 19.8778 22.7545 19.7938C23.3004 19.7097 23.811 20.084 23.8951 20.6299C24.1968 22.5885 23.8436 24.592 22.8903 26.3294C21.9369 28.0669 20.4368 29.441 18.6227 30.2387C16.8085 31.0364 14.7818 31.213 12.857 30.7412C10.9322 30.2693 9.21703 29.1753 7.97755 27.629C6.73807 26.0827 6.04363 24.1705 6.00199 22.1891C5.96035 20.2078 6.57384 18.2681 7.74727 16.6711C8.92069 15.074 10.5884 13.9089 12.4917 13.3566C14.3949 12.8043 16.4273 12.8956 18.2733 13.6164C18.7878 13.8173 19.042 14.3971 18.8411 14.9116C18.6403 15.4261 18.0604 15.6803 17.5459 15.4794Z" fill="#333333"/>
<path fill-rule="evenodd" clip-rule="evenodd" d="M14 39L14 31C14 30.4477 14.4477 30 15 30C15.5523 30 16 30.4477 16 31L16 39C16 39.5523 15.5523 40 15 40C14.4477 40 14 39.5523 14 39Z" fill="#333333"/>
<path fill-rule="evenodd" clip-rule="evenodd" d="M11 34C11 33.4477 11.4477 33 12 33H18C18.5523 33 19 33.4477 19 34C19 34.5523 18.5523 35 18 35H12C11.4477 35 11 34.5523 11 34Z" fill="#333333"/>
<path fill-rule="evenodd" clip-rule="evenodd" d="M28.9016 15.2633C27.4182 14.8445 25.838 14.9271 24.4064 15.4982C22.9747 16.0694 21.7716 17.097 20.9836 18.4218C20.1957 19.7466 19.8671 21.2944 20.0488 22.8251C20.1139 23.3735 19.7221 23.8708 19.1736 23.9359C18.6252 24.001 18.1278 23.6092 18.0627 23.0608C17.8292 21.0928 18.2517 19.1028 19.2647 17.3995C20.2777 15.6962 21.8246 14.3749 23.6653 13.6406C25.5061 12.9063 27.5377 12.8001 29.4449 13.3385C31.3522 13.8768 33.0284 15.0297 34.2135 16.6181C35.3986 18.2065 36.0263 20.1416 35.9992 22.1232C35.972 24.1048 35.2916 26.022 34.0635 27.5774C32.8354 29.1327 31.1282 30.2393 29.207 30.7252C27.2857 31.2112 25.2578 31.0494 23.4378 30.2651C22.9306 30.0465 22.6967 29.4581 22.9153 28.9509C23.1339 28.4437 23.7222 28.2098 24.2294 28.4284C25.6449 29.0385 27.2222 29.1643 28.7165 28.7863C30.2109 28.4083 31.5386 27.5477 32.4938 26.338C33.449 25.1282 33.9783 23.637 33.9993 22.0958C34.0204 20.5546 33.5322 19.0495 32.6105 17.8141C31.6888 16.5786 30.385 15.682 28.9016 15.2633Z" fill="#333333"/>
<path fill-rule="evenodd" clip-rule="evenodd" d="M32.7929 17.2071C32.4024 16.8166 32.4024 16.1834 32.7929 15.7929L40.2929 8.29291C40.6834 7.90239 41.3166 7.90239 41.7071 8.29291C42.0976 8.68344 42.0976 9.3166 41.7071 9.70713L34.2071 17.2071C33.8166 17.5976 33.1834 17.5976 32.7929 17.2071Z" fill="#333333"/>
<path fill-rule="evenodd" clip-rule="evenodd" d="M40.9244 14.9999C40.3721 14.993 39.9301 14.5397 39.9371 13.9874L39.9872 10.0129L36.0126 10.0629C35.4604 10.0699 35.007 9.62783 35.0001 9.07559C34.9931 8.52335 35.4352 8.07003 35.9874 8.06307L42.0128 7.98718L41.9369 14.0126C41.9299 14.5649 41.4766 15.0069 40.9244 14.9999Z" fill="#333333"/>
</svg>
